X:1
T:Dowd's Favourite
M:4/4
L:1/8
R:reel
K:Gdor
DGGA BABF | DFF2 DFCF | DGGA BABd | cAfA AGGF ::
B2dB fBdB | B2dB cAFA | B2dB fBdB | cAFA BGGA |
B2dB fBdB | B2dB cAFA | BAGF Ggge | fdcA BGGA ::
gdd2 g2ag | fcc2 fcAc | gdd2 g2ag | fdcA BGG2 |
gdd2 g2ag | fcc2 fcAF | GABc dgge | fdcA BGGA :|
